src/icons/main-warning.svg

<svg enable-background="new 0 0 14 12" viewBox="0 0 14 12" xmlns="http://www.w3.org/2000/svg"><path d="m13.9 11-6.3-10.7c-.1-.2-.3-.3-.6-.3s-.5.1-.6.3l-6.3 10.7c-.1.1-.1.2-.1.3 0 .4.3.7.7.7h12.6c.4 0 .7-.3.7-.7 0-.1 0-.2-.1-.3zm-6.2-.3h-1.4v-1.4h1.4zm0-2h-1.4v-5.4h1.4z" fill="#4d5969"/></svg>

<?xml version="1.0" encoding="utf-8"?>
<!-- Generator: Adobe Illustrator 20.1.0, SVG Export Plug-In . SVG Version: 6.00 Build 0)  -->
<svg version="1.1" id="Layer_1" xmlns="http://www.w3.org/2000/svg" xmlns:xlink="http://www.w3.org/1999/xlink" x="0px" y="0px"
	 viewBox="0 0 14 12" style="enable-background:new 0 0 14 12;" xml:space="preserve">
<style type="text/css">
	.st0{fill:#4D5969;}
</style>
<title>HDL/Icon/Standard/warning</title>
<desc>Created with Sketch.</desc>
<g id="Colors">
	<g id="Main-Icons" transform="translate(-621.000000, -456.000000)">
		<g id="Warning" transform="translate(600.000000, 437.000000)">
			<g id="HDL_x2F_Icon_x2F_Standard_x2F_warning" transform="translate(21.000000, 19.000000)">
				<path id="Shape" class="st0" d="M13.9,11L13.9,11L7.6,0.3l0,0C7.5,0.1,7.3,0,7,0S6.5,0.1,6.4,0.3l0,0L0.1,11l0,0
					C0,11.1,0,11.2,0,11.3C0,11.7,0.3,12,0.7,12h12.6c0.4,0,0.7-0.3,0.7-0.7C14,11.2,14,11.1,13.9,11z M7.7,10.7H6.3V9.3h1.4V10.7z
					 M7.7,8.7H6.3V3.3h1.4V8.7z"/>
			</g>
		</g>
	</g>
</g>
</svg>
